X:1
T:Magnificat quinti toni - Soriano
T:#
%%score [ 1 2 3 4 ]
L:1/8
Q:1/4=130
M:none
K:Bb
V:1 treble nm="S" snm="S"
V:2 treble nm="A" snm="A"
V:3 treble-8 nm="T" snm="T"
V:4 bass nm="B" snm="B"
V:1
 x12 ||"^Magnificat quinti toni""^Francesco Soriano\n(1549-1621)"[Q:1/4=200] B8 B4 B4 | %2
w: |A- ni- ma|
 c4 A4 B4 G4 | G4 G6 G2 A4 | F4 G4 G8- |[M:4/2][Q:1/4=200][Q:1/4=200][Q:1/4=200][Q:1/4=200] G8 G8 | %6
w: me- a Do- mi-|num, a- ni- ma|me- a Do\-|* mi-|
 G16 ||[Q:1/4=130] x16 x2 | x16 x2 | B8 G4 G4 | F8 E8 | z8 z4 B4 | (c2 d2 e2 dc d2 B2 c2 d2 | %13
w: num.|||Qui- a re-|spe- xit|hu-|mi\- * * * * * * * *|
 e4) d4 c4 B4- |[M:4/2] B4 A4 c4 B4- | B4 A4 B4 B4- | B4 B4 B8 | B4 d4 d4 e4 | d8 (c2 d2 e2 c2) | %19
w: * li- ta- tem|* an- cil- lae|* su- ae: ec\-|* ce e-|nim ex hoc be-|a- tam * * *|
 d4 e8 d4 | e4 B8 B4 | B4 B4 c4 A4 | B16 | G16- | G16 || %25
w: * me di-|cent o- mnes|ge- ne- ra- ti-|o-|nes.||
[Q:1/4=130][Q:1/4=130][Q:1/4=130][Q:1/4=130][Q:1/4=130] z20 | z18 || %27
w: ||
[Q:1/4=200][Q:1/4=200][Q:1/4=200][Q:1/4=200] B12 B4 | B4 e4 (d2 B2 d4- | d2) d2 e4 f8 | B16 | z16 | %32
w: Et mi-|se- ri- cor\- * *|* di- a e-|ius||
[M:4/2] z16 | z4 B8 c4- | c4 A4 A4 (B4- | B2 A2 G8 ^F4) | G16 || %37
w: |ti- men-|* ti- bus e\-||um.|
[Q:1/4=130][Q:1/4=130][Q:1/4=130][Q:1/4=130] z18 | z18 || %39
w: ||
[Q:1/4=200][Q:1/4=200][Q:1/4=200][Q:1/4=200] z16 | z16 | z16 | z8 z4 f4 | (e2 d2 c2 d2 e4) c4 | %44
w: |||Et|ex\- * * * * al-|
 d8 B4 c4- |[M:4/2] (c2 B2 B2 AG A4) A4 | G4 d4 e8- | e4 e4 e8- | e4 d4 d8- | d8 d8 | =B16 || %51
w: ta- vit hu\-|* * * * * * mi-|les, et ex\-|* al- ta\-|* vit hu\-|* mi-|les.|
[Q:1/4=130][Q:1/4=130][Q:1/4=130][Q:1/4=130] z18 | z20 || %53
w: ||
[Q:1/4=200][Q:1/4=200][Q:1/4=200][Q:1/4=200] B8 B6 B2 | B4 e4 d4 d4- | d2 d2 f4 e8 | d4 B8 c4 | %57
w: Su- sce- pit|Is- ra- el pu\-|* e- rum su-|um, re- cor-|
[M:4/2] B8 B4 B4 | G6 G2 A4 c4 | (B6 A2 G2 A2 B2 G2 | A2 G2 G8) ^F4 | G16 || %62
w: da- tus mi-|se- ri- cor- di-|ae * * * * *|* * * su-|ae.|
[M:4/2][Q:1/4=130] z18 | z22 ||[M:3/1][Q:1/4=400][Q:1/4=400][Q:1/4=400][Q:1/4=400] z16 z8 | %65
w: |||
 z16 z8 | z16 z8 | B12 B4 A8 | B12 B4 c8 | (d4 c4 B4 A4 G8) | A8 c16 | B16 A8 ||[Q:1/4=200] B16 | %73
w: ||Glo- ri- a,|glo- ri- a|Pa\- * * * *|tri, et|Fi- li-|o,|
 z16 | B8 B4 c4- | c2 c2 A4 (B6 AG | A2 G2 G8 ^F4) | G16 || %78
w: |et Spi- ri\-|* tu- i san\- * *||cto:|
[Q:1/4=130][Q:1/4=130][Q:1/4=130][Q:1/4=130][Q:1/4=130] z18 | z18 |] %80
w: ||
V:2
 x8 x2 x2 || z4 E8 E4 | E4 F4 D4 E4- | E4 E4 (E4 D2 C2 | D4) (B,8 C4-) |[M:4/2] (C2 D2 E8) E4 | %6
w: |A- ni-|ma me- a Do\-|* mi- num, * *|* Do\- *|* * * mi-|
 D16 || x16 x2 | x16 x2 | z4 B,4 C4 E4- | E4 D4 E8 | z4 F4 (G2 A2 B2 AG | A2 F2 G2 A2 B4 A4) | %13
w: num.|||Qui- a re\-|* spe- xit|hu- mi\- * * * *||
 G4 F4 z4 G4 |[M:4/2] F4 F4 G8 | F8 z4 F4- | F4 F4 G8 | F4 F4 B4 G4 | F4 G4 _A4 G4- | %19
w: ta- tem an-|cil- lae su-|ae: ec\-|* ce e-|nim ex hoc be-|a- tam me di\-|
 (G4 F2 E2 F8) | E4 G8 G4 | G12 F4 | (F2 E2 D2 E2 F4) D4 | (C2 B,2 C2 D2 E8) | D16 || z20 | z18 || %27
w: |cent o- mnes|ge- ne-|ra\- * * * * ti-|o\- * * * *|nes.|||
 G12 G4 | G4 B4 B8 | B4 B4 _A8 | G4 G8 F4 | G4 A4 B4 F4- |[M:4/2] F4 G4 E4 F4 | %33
w: Et mi-|se- ri- cor-|di- a e-|ius a pro-|ge- ni- e in|* pro- ge- ni-|
 G4 G4 (G2 F2 E2 D2 | C4) F4 (F2 E2 D2 C2 | B,4 C4) D8 | D16 || z18 | z18 || z8 z4 E4 | %40
w: es ti- men\- * * *|* ti- bus * * *|* * e-|um.|||De-|
 D4 G4 F4 F4 | (D6 E2 F4) D4 | F4 G4 F4 B4 | (G2 F2 E2 F2 G4) E4 | (F2 B,2 B4) G4 A4- | %45
w: po- su- it po-|ten\- * * tes|de se- de, Et|ex\- * * * * al-|ta\- * * vit hu\-|
[M:4/2] A2 G2 G8 ^F4 | G4 B4 (G2 F2 E2 F2 | G12) G4 | G4 F8 (G4- | G4 ^F2 =E2 F4) F4 | G16 || z18 | %52
w: * * * mi-|les, et ex\- * * *|* al-|ta- vit hu\-|* * * * mi-|les.||
 z20 || G8 G6 G2 | G4 B4 B4 B4- | B2 B2 B4 (G4 A4) | B4 F8 F4 |[M:4/2] F8 (G6 A2 | B4) E4 C6 C2 | %59
w: |Su- sce- pit|Is- ra- el pu\-|* e- rum su\- *|um, re- cor-|da- tus *|* mi- se- ri-|
 D4 F4 E8- | E8 D8 | D16 ||[M:4/2] z18 | z22 ||[M:3/1] E12 E4 D8 | E12 E4 F8 | (G4 F4 E4 D4 C8) | %67
w: cor- di- ae|* su-|ae.|||Glo- ri- a,|glo- ri- a|Pa\- * * * *|
 B,8 E12 E4 | F8 (G16 | F16 =E8) | F8 C16 | F16 F8 || D16 | z8 z4 F4- | F4 F4 G6 G2 | %75
w: tri, glo- ri-|a Pa\-||tri, et|Fi- li-|o,|et|* Spi- ri- tu-|
 =E4 (F6 D2 F4- | F2 E2 E4 D8) | D16 || z18 | z18 |] %80
w: i san\- * *||cto:|||
V:3
 E2 G2 B2 B2 B4 || z16 | z8 B8 | B4 B4 c4 A4 | B4 G4 G4 e4- | %5
w: Ma- gni\- * fi- cat||A-|ni- ma me- a|Do- mi- num, Do\-|
[M:4/2][K:treble-8] (e2 d2 c2 B2 c4) c4 | =B16 || E2 G2 B8 c2 B4 | B8 c2 A2 B2 G4 | z16 | %10
w: * * * * * mi-|num.|Et ex- ultavit~spiritus me- us|in~Deo~salu- ta- ri me- o.||
 B8 G4 G4 | F8 E8 | z16 | z4 B4 (c2 d2 e2 dc) |[M:4/2][K:treble-8] (d2 B2 c2 d2 e4) e4 | %15
w: Qui- a re-|spe- xit||an- cil\- * * * *|* * * * * lae|
 c8 B4 d4- | d4 d4 e8 | d4 B4 G4 E4 | B8 F4 c4 | B8 B8 | z4 e8 e4 | e4 e4 e4 d4 | %22
w: su- ae: ec\-|* ce e-|nim ex hoc be-|a- tam me|di- cent|o- mnes|ge- ne- ra- ti-|
 (d2 c2 B2 c2 d2 e2 f2 d2 | e6 d2 c2 G2 c4) | =B16 || E2 G2 B8 c2 B2 B4 | B8 c2 A2 B2 G4 || %27
w: o\- * * * * * * *||nes.|~Qui- a fecit~mihi~magna~qui po- tens est,|et~sanctum no- men e- ius.|
 e12 e4 | e4 g4 f8 | f4 B4 (c4 d4) | e4 e8 d4 | e4 c4 B4 d4- |[M:4/2][K:treble-8] d4 B4 c4 d4 | %33
w: Et mi-|se- ri- cor-|di- a e\- *|ius a pro-|ge- ni- e in|* pro- ge- ni-|
 e4 e4 (e2 d2 c2 B2 | A4) d4 (d2 c2 B2 A2 | G8) A8 | G16 || E2 G2 B8 c2 B4 | B8 c2 A2 B2 G4 || %39
w: es ti- men\- * * *|* ti- bus * * *|* e-|um.|Fe- cit potentiam~in~brachio su- o,|dispersit~superbos~mente cor- dis su- i.|
 z4 e4 d4 g4 | f4 e4 (d6 e2 | f4) (B2 c2 d2 e2 f4) | d4 (e8 d4) | e16 | z4 f4 (e2 d2 c2 d2) | %45
w: De- po- su-|it po- ten\- *|* tes * * * *|de se\- *|de,|Et ex\- * * *|
[M:4/2][K:treble-8] e4 e4 d8 | G8 z4 c4 | (B2 A2 G2 A2 B4) B4 | c4 A4 (B8- | B4 A2 G2 A4) A4 | %50
w: * al- ta-|vit, et|ex\- * * * * al-|ta- vit hu\-|* * * * mi-|
 G16 || E2 G2 B8 c2 B4 | B8 c2 A2 A2 B2 G4 || e8 d6 d2 | d4 g4 f4 f4- | f2 f2 d4 e8 | f4 d8 c4 | %57
w: les.|~E- su- rientes~implevit bo- nis:|et~divites~di- mi- sit i- na- nes.|Su- sce- pit|Is- ra- el pu\-|* e- rum su-|um, re- cor-|
[M:4/2][K:treble-8] d8 e8- | e4 g4 f4 f4 | (f2 e2 d2 c2 B4) G4 | c8 A8 | G16 || E2 G2 B8 c2 B4 | %63
w: da- tus|* mi- se- ri-|cor\- * * * * di-|ae su-|ae.|Si- cut locutus~est~ad~patres no- stros,|
 B8 c2 A2 A2 B2 G2 G4 ||[M:3/1][K:treble-8] z16 z8 | z16 z8 | B12 B4 A8 | B12 B4 c8 | %68
w: Abraham~et~semini e- ius in sae- cu- la.|||Glo- ri- a,|glo- ri- a|
 (d4 c4 B4 A4 G8 | A8 B16) | c8 (f12 e4) | (d8 c8) c8 || B4 f8 f4 | g6 g2 =e4 f4 | d4 d8 =e4 | %75
w: Pa\- * * * *||tri, et *|Fi\- * li-|o, et Spi-|ri- tu- i san-|cto, et Spi-|
 (g4 f2 _e2 d4) d4 | c8 A8 | G16 || E2 G2 B8 c2 B4 | B8 c2 A2 B2 G4 |] %80
w: ri\- * * * tu-|i san-|cto:|Si- cut erat~in~principio,~et~nunc,~et sem- per,|et~in~saecula~saecu- lo- rum. A- men.|
V:4
 x12 || z16 | z8 z4 E,4- | E,4 E,4 E,4 F,4 | D,4 (E,6 D,2 C,2 B,,2) |[M:4/2] C,12 C,4 | G,16 || %7
w: ||A\-|* ni- ma me-|a Do\- * * *|* mi-|num.|
 x16 x2 | x16 x2 | z16 | z4 B,,4 C,4 E,4- | E,4 D,4 E,8 | z8 z4 F,4 | %13
w: |||Qui- a re\-|* spe- xit|an-|
 (G,2 A,2 B,2 A,G, A,2 F,2 G,2 A,2) |[M:4/2] B,4 F,4 E,8 | F,8 z4 B,4- | B,4 B,4 E,8 | B,,8 z8 | %18
w: cil\- * * * * * * * *|* lae su-|ae: ec\-|* ce e-|nim|
 z16 | z16 | z4 E,8 E,4 | E,4 E,4 C,4 D,4 | (B,,16 | C,16) | G,16 || z20 | z18 || E,12 E,4 | %28
w: ||o- mnes|ge- ne- ra- ti-|o\-||nes.|||Et mi-|
 E,4 E,4 B,8 | B,4 G,4 F,8 | (E,2 F,2 G,2 A,2 B,8) | z8 z4 B,4- |[M:4/2] B,4 G,4 _A,4 F,4 | %33
w: se- ri- cor-|di- a e-|ius * * * *|in|* pro- ge- ni-|
 E,8 E,8 | F,8 D,4 D,4 | (E,8 D,8) | G,,16 || z18 | z18 || E,8 (G,6 A,2 | B,12) B,4 | B,4 B,4 B,8 | %42
w: es ti-|men- ti- bus|e\- *|um.|||De- po\- *|* su-|it po- ten-|
 B,8 B,8 | C16 | B,8 z8 |[M:4/2] z16 | z4 G,4 (E,2 D,2 C,2 D,2 | E,12) E,4 | C,4 D,4 (B,,6 C,2 | %49
w: tes de|se-|de,||et ex\- * * *|* al-|ta- vit hu\- *|
 D,12) D,4 | G,,16 || z18 | z20 || E,8 G,6 G,2 | G,4 E,4 B,,4 B,4- | B,2 B,2 B,4 C8 | B,4 B,8 A,4 | %57
w: * mi-|les.|||Su- sce- pit|Is- ra- el pu\-|* e- rum su-|um, re- cor-|
[M:4/2] B,8 E,4 E,4 | E,4 E,4 F,8 | D,4 D,4 (E,8 | C,8 D,8) | G,,16 ||[M:4/2] z18 | z22 || %64
w: da- tus mi-|se- ri- cor-|di- ae su\-||ae.|||
[M:3/1] z16 z8 | E,12 E,4 D,8 | E,12 E,4 F,8 | (G,4 F,4 E,4 D,4 C,8) | B,,8 E,12 E,4 | D,8 G,16 | %70
w: |Glo- ri- a,|glo- ri- a|Pa\- * * * *|tri, glo- ri-|a Pa-|
 (F,12 G,4 A,8) | B,8 F,8 F,8 || B,,8 B,8 | B,4 C6 C2 A,4 | B,8 G,4 C,4 | C,4 D,6 D,2 B,,4 | %76
w: tri, * *|et Fi- li-|o, et|Spi- ri- tu- i|san- cto, et|Spi- ri- tu- i|
 (C,8 D,8) | G,,16 || z18 | z18 |] %80
w: san\- *|cto:|||

